!! 00000] TT[00
!! NN
!!!OTL: Xiu hua deng]                   , Blumen auf d. Lampe sticken)
!!!ARE: Asia, China, Shanxi, Qitai
!! Ethnic Group: Han
!! I, 277
!!!SCT: C0072
!!!YEM: Copyright 1995, estate of Helmut Schaffrath.
**kern
*ICvox
*Ivox
*M4/4
*k[b-]
*F:
{8r
8ff
8ee
8dd
8a
8ff
8ee
8gg
=1
8dd
8a
8.cc
16dd
16cc
16dd
16cc
16g
16a
16b-
8a}
=2
{8r
8b-
8a
8a
8.g
16a
8.cc
16dd
=3
8.cc
16e
8.g
16a
8.cc
16g
4f}
=4
{8cc
8d
4f
8r
4a
8cc
=5
8.dd
16ff
8.a
16g
8a
8d
4f}
=6
{8.ff
16ee
8.dd
16ff
8a
8a
8cc
16dd
16ff
=7
8ee
8dd
8b-
16a
16g
8.f
16g
16a
16b-
8a}
=8
{8r
8ff
8ee
8gg
8dd
8a
8cc
16dd
16ff
=9
8ee
8dd
8b-
8a
8.cc
16g
4f}
==
!!!AGN: Wuge, Yangge, Jinzhong yangge. Xin minge
!! neues Volkslied. Alle 4 klingen leicht erhoeht.
!!    Hier ist die 3. Strophe notiert. In Strophe 1 und 2 fehlt die Wieder-
!!    holung der letzten Phrase. Vorspiel weggelassen.
!!!ONB: ESAC (Essen Associative Code) Database: CHINA
!!!AMT: simple quadruple
!!!AIN: vox
!!!EED: Helmut Schaffrath
!!!EEV: 1.0
*-
